icons/expo-dark.svg

<svg width="256" height="256" viewBox="0 0 256 256" fill="none" xmlns="http://www.w3.org/2000/svg">
<path d="M196 0H60C26.8629 0 0 26.8629 0 60V196C0 229.137 26.8629 256 60 256H196C229.137 256 256 229.137 256 196V60C256 26.8629 229.137 0 196 0Z" fill="#282828"/>
<path d="M122.961 103.86C124.607 101.455 126.401 101.152 127.857 101.152C129.313 101.152 131.731 101.455 133.378 103.86C146.291 121.484 167.611 156.602 183.341 182.518C193.603 199.404 201.481 212.383 203.101 214.033C209.168 220.231 217.488 216.368 222.324 209.336C227.082 202.416 228.399 197.554 228.399 192.371C228.399 188.838 159.43 61.3888 152.488 50.7796C145.815 40.5785 143.631 38 132.208 38H123.645C112.249 38 110.602 40.5785 103.92 50.7796C96.978 61.3888 28 188.838 28 192.363C28 197.554 29.326 202.416 34.0927 209.336C38.9287 216.368 47.2487 220.231 53.3153 214.024C54.9273 212.374 62.8053 199.404 73.0667 182.509C88.7967 156.602 110.047 121.484 122.969 103.852L122.961 103.86Z" fill="#F2F2F2"/>
</svg>

<svg xmlns="http://www.w3.org/2000/svg" width="256" height="256" fill="none"><path fill="#282828" d="M196 0H60C26.863 0 0 26.863 0 60v136c0 33.137 26.863 60 60 60h136c33.137 0 60-26.863 60-60V60c0-33.137-26.863-60-60-60"/><path fill="#F2F2F2" d="M122.961 103.86c1.646-2.405 3.44-2.708 4.896-2.708s3.874.303 5.521 2.708c12.913 17.624 34.233 52.742 49.963 78.658 10.262 16.886 18.14 29.865 19.76 31.515 6.067 6.198 14.387 2.335 19.223-4.697 4.758-6.92 6.075-11.782 6.075-16.965 0-3.533-68.969-130.982-75.911-141.591-6.673-10.202-8.857-12.78-20.28-12.78h-8.563c-11.396 0-13.043 2.578-19.725 12.78C96.978 61.389 28 188.838 28 192.363c0 5.191 1.326 10.053 6.093 16.973 4.836 7.032 13.156 10.895 19.222 4.688 1.612-1.65 9.49-14.62 19.752-31.515 15.73-25.907 36.98-61.025 49.902-78.657z"/></svg>
